X:1
T:Title
%%score { ( 1 4 ) | ( 2 3 ) }
L:1/8
M:4/4
K:G
V:1 treble nm="Grand Piano"
V:4 treble 
V:2 treble 
V:3 treble 
V:1
 z4 z2[Q:1/4=100] B2 | d2 [Fd]2 [GB]2 .[DB]2 | [G,EG]2 [G,EG]2[K:bass] [G,CE]2 [F,CD]2 | %3
 [G,B,G]2 G2 A2 B2 |[M:7/8] [Fd]- [Fd]3 [FA]3 |[M:1/4] B2 |[M:4/4] d2 d2 B2 [DB]A | %7
 [B,G]2 [G,DG]2 [G,CE]2 [G,B,D]2 | [G,DG]2 [EA]2 [DB]2 [B,DG]2 |[M:7/8] [CDA]- [CDA]3 [B,DG]3 | %10
[M:1/4] [DB]2 |[M:4/4] [DA]2 [DA]2 [^CA]2 [CE]2 | [EA]2 [EG]2 [DF]2 [FA]2 | [Fd]2 [A^c]2 B2 c2 | %14
[M:7/8] [Fd]- [Fd]3 [FA]3 |[M:1/4] [Fd]2 |[M:4/4] d2 d2 B2 [DB]A | %17
 [B,G]2 [G,DG]2 [G,CE]2 [G,B,D]2 | [G,DG]2 [EA]2 [DB]2 [B,DG]2 |[M:7/8] [CDA]- [CDA]3 [B,DG]3 |] %20
V:2
 z4 z2 [G,DG]2 | [G,B,G]2[K:bass] [D,A,]2 [G,,G,]2 z A | C,2 C,2 C,2 D,2 | %3
 G,,2 [E,G,B,]2 [D,F,D]2 [G,D]2 |[M:7/8] [D,A,]- [D,A,]3 [D,D]3 |[M:1/4][K:treble] [G,DG]2 | %6
[M:4/4] [G,B,G]2[K:bass] [F,A,D]2 [G,D]2 z C | E,2 B,,2 C,2 G,,2 | B,,2 [C,G,]2 [D,G,]2 D,2 | %9
[M:7/8] D,- D,3 G,,3 |[M:1/4] [G,,G,]2 |[M:4/4] [D,F,]2 [D,F,]2 [A,,E,]2 [A,,A,]2 | %12
 [^C,A,]2 [A,,A,]2 [D,A,]2 [D,A,]2 | [D,A,]2 [F,D]2[K:treble] [G,DG]2 [A,G]2 | %14
[M:7/8][K:bass] [D,A,]- [D,A,]3 [D,D]3 |[M:1/4] [D,C]2 |[M:4/4] [G,B,G]2 [F,A,D]2 [G,D]2 z C | %17
 E,2 B,,2 C,2 G,,2 | B,,2 [C,G,]2 [D,G,]2 D,2 |[M:7/8] D,- D,3 G,,3 |] %20
V:3
 x8 | z4[K:bass] z2 [A,,G,]2 | x8 | x8 |[M:7/8] x7 |[M:1/4][K:treble] x2 | %6
[M:4/4] z4[K:bass] z2 D,2 | x8 | x8 |[M:7/8] x7 |[M:1/4] x2 |[M:4/4] x8 | x8 | x4[K:treble] x4 | %14
[M:7/8][K:bass] x7 |[M:1/4] x2 |[M:4/4] z4 z2 D,2 | x8 | x8 |[M:7/8] x7 |] %20
V:4
 x8 | x8 | x4[K:bass] x4 | x8 |[M:7/8] x7 |[M:1/4] x2 |[M:4/4] z4 z2 F2 | x8 | x8 |[M:7/8] x7 | %10
[M:1/4] x2 |[M:4/4] x8 | x8 | x8 |[M:7/8] x7 |[M:1/4] x2 |[M:4/4] z4 z2 F2 | x8 | x8 |[M:7/8] x7 |] %20

